icons/default/Share.svg

<path fill-rule="evenodd" clip-rule="evenodd"
	d="M10.326 5.35826L10.3228 1.61616C10.3221 0.783239 11.3378 0.375465 11.9132 0.977671L18.9756 8.36888C19.3165 8.72567 19.3165 9.28749 18.9756 9.64428L11.9258 17.0223C11.351 17.624 10.3361 17.2175 10.3354 16.3854L10.3318 12.2422C6.55192 12.7011 3.96982 14.2352 2.4962 16.8392C2.01516 17.6893 0.715904 17.3075 0.771246 16.3323C1.12401 10.1162 4.37102 6.39222 10.326 5.35826ZM17.0315 9.00658L12.1709 3.91965L12.1728 6.15163C12.1732 6.61627 11.8282 7.00878 11.3673 7.06797C6.98869 7.63036 4.29271 9.62438 3.17811 13.157C5.15678 11.4894 7.83982 10.5398 11.1901 10.307C11.7235 10.2699 12.1767 10.6924 12.1771 11.2271L12.1796 14.0844L17.0315 9.00658Z"
	fill="currentColor" />

<path fill-rule="evenodd" clip-rule="evenodd" d="m10.326 5.358-.003-3.742c0-.833 1.015-1.24 1.59-.638l7.063 7.39c.34.358.34.92 0 1.276l-7.05 7.378c-.575.602-1.59.196-1.59-.637l-.004-4.143c-3.78.46-6.362 1.993-7.836 4.597-.48.85-1.78.469-1.725-.507.353-6.216 3.6-9.94 9.555-10.974Zm6.706 3.649L12.17 3.92l.002 2.232a.923.923 0 0 1-.806.916c-4.378.562-7.074 2.556-8.189 6.089 1.979-1.668 4.662-2.617 8.012-2.85a.923.923 0 0 1 .987.92l.003 2.857 4.852-5.077Z" fill="currentColor"/>
